;Generated by Cura LulzBot Edition GCodeWriter Version: 3.2.32
;FLAVOR:Marlin
;TIME:13451
;Filament used: 6.68889m
;Layer height: 0.25
;Generated with Cura_SteamEngine 3.2.32
M82 ;absolute extrusion mode
;This G-Code has been generated specifically for the LulzBot TAZ 5 with standard extruder
M75			 ; start GLCD timer
M140 S60    ; start bed heating up
G21                      ; set units to Millimetres
G90                      ; absolute positioning
M107                     ; disable fans
M82                      ; set extruder to absolute mode
G28 X0 Y0                ; home X and Y
G28 Z0                   ; home Z
G1 Z15.0 F175 ; move extruder up
M117 Heating...                     ; progress indicator message on LCD
M109 R205  ; wait for extruder to reach printing temp
M190 S60    ; wait for bed to reach printing temp
G92 E0                   ; set extruder position to 0
G1 F200 E0               ; prime the nozzle with filament
G92 E0                   ; re-set extruder position to 0
G1 F175       ; set travel speed
M203 X192 Y208 Z3        ; set limits on travel speed
M117 TAZ 5 Printing...   ; progress indicator message on LCD

M221 S100
;LAYER_COUNT:132
;LAYER:0
M107
G0 F2625 X86.215 Y110.227 Z0.424
;TYPE:SKIRT
G1 F900 X86.654 Y109.968 E0.01694
G1 X87.128 Y109.781 E0.03387
G1 X87.625 Y109.67 E0.0508
G1 X88.081 Y109.638 E0.06599
G1 X201.882 Y109.636 E3.84782
G1 X202.39 Y109.676 E3.86475
G1 X202.885 Y109.795 E3.88167
G1 X203.356 Y109.99 E3.89861
G1 X203.791 Y110.256 E3.91556
G1 X204.178 Y110.586 E3.93246
G1 X204.51 Y110.973 E3.9494
G1 X204.784 Y111.423 E3.96691
G1 X206.103 Y114.041 E4.06433
G1 X208.782 Y118.829 E4.24666
G1 X211.724 Y123.452 E4.42876
G1 X214.922 Y127.902 E4.61087
G1 X218.349 Y132.14 E4.79199
G1 X222.052 Y136.226 E4.97524
G1 X223.93 Y138.129 E5.06409
G1 X227.955 Y141.876 E5.24684
G1 X232.173 Y145.38 E5.42907
G1 X236.562 Y148.623 E5.61042
G1 X241.143 Y151.623 E5.7924
G1 X246.976 Y154.951 E6.01557
G1 X247.397 Y155.238 E6.0325
G1 X247.769 Y155.586 E6.04943
G1 X248.081 Y155.989 E6.06637
G1 X248.326 Y156.435 E6.08328
G1 X248.499 Y156.915 E6.10024
G1 X248.595 Y157.415 E6.11716
G1 X248.615 Y157.774 E6.1291
G1 X248.615 Y162.115 E6.27336
G1 X248.575 Y162.623 E6.2903
G1 X248.456 Y163.118 E6.30722
G1 X248.261 Y163.589 E6.32416
G1 X247.995 Y164.024 E6.3411
G1 X247.665 Y164.411 E6.358
G1 X247.278 Y164.743 E6.37495
G1 X246.843 Y165.009 E6.39189
G1 X246.373 Y165.205 E6.40882
G1 X245.878 Y165.324 E6.42573
G1 X245.592 Y165.357 E6.4353
G1 X242.425 Y165.578 E6.5408
G1 X236.961 Y166.206 E6.72358
G1 X231.546 Y167.139 E6.90618
G1 X228.938 Y167.703 E6.99485
G1 X224.52 Y168.827 E7.14635
G1 X224.017 Y168.913 E7.16331
G1 X223.719 Y168.927 E7.17322
G1 X219.875 Y168.928 E7.30097
G1 X219.297 Y168.876 E7.32025
G1 X214.706 Y168.048 E7.47528
G1 X209.251 Y167.35 E7.65804
G1 X203.799 Y166.964 E7.83967
G1 X198.318 Y166.886 E8.02184
G1 X192.857 Y167.118 E8.20348
G1 X187.419 Y167.657 E8.38508
G1 X181.962 Y168.514 E8.56865
G1 X180.138 Y168.869 E8.6304
G1 X179.516 Y168.929 E8.65117
G1 X175.694 Y168.928 E8.77818
G1 X175.186 Y168.888 E8.79512
G1 X174.926 Y168.836 E8.80393
G1 X169.567 Y167.53 E8.98723
G1 X164.23 Y166.539 E9.16762
G1 X158.791 Y165.845 E9.34983
G1 X153.316 Y165.46 E9.53223
G1 X149.246 Y165.374 E9.66751
G1 X138.577 Y165.414 E10.02207
G1 X133.096 Y165.724 E10.2045
G1 X127.664 Y166.341 E10.38618
G1 X122.251 Y167.269 E10.56869
G1 X119.61 Y167.837 E10.65846
G1 X115.655 Y168.831 E10.79398
G1 X115.153 Y168.916 E10.8109
G1 X114.862 Y168.929 E10.82058
G1 X111.035 Y168.928 E10.94776
G1 X110.455 Y168.876 E10.96711
G1 X105.532 Y167.982 E11.13339
G1 X100.101 Y167.289 E11.31534
G1 X94.649 Y166.906 E11.49696
G1 X89.166 Y166.831 E11.67919
G1 X83.706 Y167.065 E11.8608
G1 X78.252 Y167.61 E12.04295
G1 X72.835 Y168.463 E12.22519
G1 X70.775 Y168.868 E12.29496
G1 X70.147 Y168.929 E12.31593
G1 X66.321 Y168.928 E12.44307
G1 X65.813 Y168.888 E12.46001
G1 X65.544 Y168.834 E12.46912
G1 X59.668 Y167.386 E12.67024
G1 X54.338 Y166.396 E12.85039
G1 X48.88 Y165.7 E13.03324
G1 X44.385 Y165.353 E13.18306
G1 X43.881 Y165.274 E13.20002
G1 X43.397 Y165.118 E13.21692
G1 X42.942 Y164.887 E13.23387
G1 X42.529 Y164.589 E13.2508
G1 X42.168 Y164.229 E13.26774
G1 X41.868 Y163.818 E13.28465
G1 X41.636 Y163.364 E13.30159
G1 X41.477 Y162.88 E13.31852
G1 X41.396 Y162.377 E13.33545
G1 X41.385 Y162.112 E13.34427
G1 X41.386 Y157.771 E13.48853
G1 X41.426 Y157.263 E13.50546
G1 X41.545 Y156.768 E13.52238
G1 X41.74 Y156.297 E13.53932
G1 X42.006 Y155.863 E13.55624
G1 X42.337 Y155.475 E13.57319
G1 X42.724 Y155.144 E13.59011
G1 X43.086 Y154.915 E13.60434
G1 X45.344 Y153.69 E13.68971
G1 X50.047 Y150.878 E13.87181
G1 X54.579 Y147.809 E14.0537
G1 X58.925 Y144.493 E14.23537
G1 X63.09 Y140.924 E14.41764
G1 X67.04 Y137.134 E14.59956
G1 X68.917 Y135.173 E14.68977
G1 X72.529 Y131.062 E14.87163
G1 X75.915 Y126.74 E15.05409
G1 X79.036 Y122.254 E15.23569
G1 X81.9 Y117.595 E15.41744
G1 X85.211 Y111.363 E15.65195
G1 X85.485 Y110.933 E15.6689
G1 X85.822 Y110.552 E15.6858
G1 X86.215 Y110.227 E15.70275
G0 F2625 X69.993 Y154.604
;TYPE:SUPPORT
G1 F900 X70.626 Y156.145 E15.75811
G1 X65.816 Y156.145 E15.91796
G1 X66.478 Y154.559 E15.97507
G1 X69.993 Y154.604 E16.09189
G0 F2625 X69.914 Y154.938
G1 F900 X66.537 Y154.938 E16.20411
G0 F2625 X66.64 Y154.762
G1 F900 X66.64 Y155.945 E16.24343
G0 F2625 X68.306 Y155.945
G1 F900 X68.306 Y154.783 E16.28204
G0 F2625 X69.972 Y155.078
G1 F900 X69.972 Y155.945 E16.31086
G1 F600 E15.31086
G0 F2625 X44.498 Y157.106
G0 X43.965 Y157.639
G0 X43.965 Y162.252
G0 X44.498 Y162.785
G0 X70.635 Y163.874
G1 F600 E16.31086
G1 F900 X69.993 Y165.438 E16.36704
G1 X66.478 Y165.438 E16.48385
G1 X65.818 Y163.874 E16.54026
G1 X70.635 Y163.874 E16.70034
G0 F2625 X69.972 Y164.074
G1 F900 X69.972 Y164.965 E16.72995
G0 F2625 X69.983 Y164.934
G1 F900 X66.48 Y164.934 E16.84636
G0 F2625 X66.64 Y165.238
G1 F900 X66.64 Y164.074 E16.88504
G0 F2625 X68.306 Y164.074
G1 F900 X68.306 Y165.238 E16.92373
G0 F2625 X110.532 Y163.874
G1 F900 X115.349 Y163.874 E17.0838
G1 X114.707 Y165.438 E17.13999
G1 X111.192 Y165.438 E17.2568
G1 X110.532 Y163.874 E17.31321
G0 F2625 X111.622 Y164.074
G1 F900 X111.622 Y165.238 E17.35189
G0 F2625 X111.194 Y164.934
G1 F900 X114.697 Y164.934 E17.46831
G0 F2625 X114.954 Y164.311
G1 F900 X114.954 Y164.074 E17.47618
G0 F2625 X113.288 Y164.074
G1 F900 X113.288 Y165.238 E17.51486
G1 F600 E16.51486
G0 F2625 X113.849 Y162.752
G0 X113.858 Y162.709
G0 X115.077 Y157.308
G0 X115.086 Y157.265
G0 X115.34 Y156.145
G1 F600 E17.51486
G1 F900 X110.53 Y156.145 E17.67471
G1 X111.192 Y154.559 E17.73182
G1 X114.707 Y154.604 E17.84864
G1 X115.34 Y156.145 E17.904
G0 F2625 X114.954 Y155.945
G1 F900 X114.954 Y155.731 E17.91112
G0 F2625 X114.628 Y154.938
G1 F900 X111.251 Y154.938 E18.02334
G0 F2625 X111.622 Y154.765
G1 F900 X111.622 Y155.945 E18.06255
G0 F2625 X113.288 Y155.945
G1 F900 X113.288 Y154.786 E18.10107
G1 F600 E17.10107
G0 F2625 X130.183 Y157.267
G0 X130.246 Y157.275
G0 X167.489 Y162.742
G0 X167.552 Y162.75
G0 X175.19 Y163.874
G1 F600 E18.10107
G1 F900 X180.007 Y163.874 E18.26115
G1 X179.365 Y165.438 E18.31733
G1 X175.85 Y165.438 E18.43414
G1 X175.19 Y163.874 E18.49056
G0 F2625 X175.853 Y164.934
G1 F900 X179.356 Y164.934 E18.60697
G0 F2625 X178.262 Y165.238
G1 F900 X178.262 Y164.074 E18.64565
G0 F2625 X176.596 Y164.074
G1 F900 X176.596 Y165.238 E18.68433
G1 F600 E17.68433
G0 F2625 X176.209 Y162.753
G0 X176.203 Y162.709
G0 X175.368 Y157.308
G0 X175.363 Y157.264
G0 X175.189 Y156.145
G1 F600 E18.68433
G1 F900 X175.851 Y154.559 E18.74144
G1 X179.387 Y154.604 E18.85896
G1 X180.006 Y156.145 E18.91415
G1 X175.189 Y156.145 E19.07423
G0 F2625 X175.911 Y154.938
G1 F900 X179.306 Y154.938 E19.18705
G0 F2625 X178.262 Y154.79
G1 F900 X178.262 Y155.945 E19.22543
G0 F2625 X176.596 Y155.945
G1 F900 X176.596 Y154.769 E19.26451
G1 F600 E18.26451
G0 F2625 X196.838 Y155.42
G0 X196.882 Y155.42
G0 X202.472 Y155.6
G0 X202.516 Y155.6
G0 X219.368 Y156.145
G1 F600 E19.26451
G1 F900 X220.03 Y154.559 E19.32163
G1 X223.544 Y154.604 E19.43841
G1 X224.186 Y156.145 E19.49389
G1 X219.368 Y156.145 E19.654
G0 F2625 X219.912 Y155.945
G1 F900 X219.912 Y155.361 E19.67341
G0 F2625 X220.09 Y154.938
G1 F900 X223.466 Y154.938 E19.7856
G0 F2625 X223.244 Y154.8
G1 F900 X223.244 Y155.945 E19.82365
G0 F2625 X221.578 Y155.945
G1 F900 X221.578 Y154.779 E19.8624
G1 F600 E18.8624
G0 F2625 X245.502 Y157.106
G0 X246.035 Y157.639
G0 X246.035 Y162.252
G0 X245.502 Y162.785
G0 X219.37 Y163.874
G1 F600 E19.8624
G1 F900 X224.187 Y163.874 E20.02248
G1 X223.545 Y165.438 E20.07866
G1 X220.03 Y165.438 E20.19547
G1 X219.37 Y163.874 E20.25189
G0 F2625 X219.912 Y164.074
G1 F900 X219.912 Y164.645 E20.27086
G0 F2625 X220.033 Y164.934
G1 F900 X223.536 Y164.934 E20.38727
G0 F2625 X223.244 Y165.238
G1 F900 X223.244 Y164.074 E20.42596
G0 F2625 X221.578 Y164.074
G1 F900 X221.578 Y165.238 E20.46464
G1 F600 E19.46464
G0 F2625 X221.578 Y162.789
G0 X221.578 Y161.354
G0 X201.128 Y158.673
G0 X201.068 Y158.587
G0 X201.138 Y158.517
;TYPE:WALL-INNER
G1 F600 E20.46464
G1 F900 X201.156 Y158.517 E20.46524
G1 X201.156 Y158.645 E20.46927
G1 X242.396 Y158.645 E21.83975
G1 X242.396 Y158.517 E21.84401
G1 X244.624 Y158.517 E21.91805
G1 X244.624 Y161.374 E22.01299
G1 X45.376 Y161.374 E28.6344
G1 X45.376 Y158.517 E28.72934
G1 X47.604 Y158.517 E28.80338
G1 X47.604 Y158.645 E28.80764
G1 X88.594 Y158.645 E30.16982
G1 X88.844 Y158.645 E30.17812
G1 X88.844 Y158.395 E30.1835
G1 X88.826 Y113.876 E31.66295
G1 X88.826 Y113.626 E31.67126
G1 X89.076 Y113.626 E31.67664
G1 X201.138 Y113.626 E35.40068
G1 X201.138 Y158.517 E36.8925
G0 F2625 X201.068 Y158.587
G0 X198.245 Y158.673
G0 X156.949 Y158.673
G0 X154.819 Y146.877
G0 X154.749 Y146.807
G1 F900 X154.749 Y115.495 E37.93306
G1 X135.786 Y115.495 E38.56323
G1 X135.786 Y146.807 E39.60379
G1 X154.749 Y146.807 E40.23397
G0 F2625 X154.819 Y146.877
G0 X135.716 Y147.012
G0 X135.786 Y147.082
G1 F900 X135.786 Y158.645 E40.61823
G1 X154.749 Y158.645 E41.24841
G1 X154.749 Y147.082 E41.63267
G1 X135.786 Y147.082 E41.97927
G0 F2625 X135.716 Y147.012
G0 X154.777 Y146.835
G0 X156.907 Y115.425
G0 X156.977 Y115.495
G1 F900 X156.977 Y158.645 E43.41323
G1 X198.217 Y158.645 E44.78372
G1 X198.217 Y115.495 E46.21768
G1 X156.977 Y115.495 E47.58817
G0 F2625 X156.907 Y115.425
G0 X92.248 Y115.425
G0 X92.318 Y115.495
G1 F900 X92.318 Y158.645 E49.02213
G1 X133.558 Y158.645 E50.39261
G1 X133.558 Y115.495 E51.82657
G1 X92.318 Y115.495 E53.19706
G0 F2625 X92.818 Y115.995
;TYPE:WALL-OUTER
G1 F900 X92.818 Y158.145 E54.59779
G1 X133.058 Y158.145 E55.93504
G1 X133.058 Y115.995 E57.33577
G1 X92.818 Y115.995 E58.67303
G0 F2625 X92.818 Y116.245
G0 X92.218 Y116.245
G0 X92.29 Y115.467
G0 X136.286 Y115.395
G0 X136.286 Y115.995
G1 F900 X136.286 Y127.418 E59.05263
G1 X154.249 Y127.418 E59.64958
G1 X154.249 Y115.995 E60.02919
G1 X136.286 Y115.995 E60.62614
G0 F2625 X136.286 Y116.245
G0 X135.686 Y116.245
G0 X135.686 Y128.332
G0 X136.286 Y128.332
G1 F900 X136.286 Y146.307 E61.22348
G1 X154.249 Y146.307 E61.82043
G1 X154.249 Y128.332 E62.41777
G1 X136.286 Y128.332 E63.01472
G0 F2625 X136.286 Y128.582
G0 X135.686 Y128.582
G0 X135.758 Y146.835
G0 X136.286 Y146.982
G0 X136.286 Y147.582
G1 F900 X136.286 Y158.145 E63.36575
G1 X154.249 Y158.145 E63.96269
G1 X154.249 Y147.582 E64.31372
G1 X136.286 Y147.582 E64.91067
G0 F2625 X136.286 Y147.832
G0 X135.686 Y147.832
G0 X135.758 Y147.054
G0 X154.777 Y146.835
G0 X156.949 Y115.467
G0 X157.477 Y115.395
G0 X157.477 Y115.995
G1 F900 X157.477 Y158.145 E66.3114
G1 X197.717 Y158.145 E67.64865
G1 X197.717 Y115.995 E69.04938
G1 X157.477 Y115.995 E70.38664
G0 F2625 X157.477 Y116.245
G0 X156.877 Y116.245
G0 X156.949 Y115.467
G0 X198.245 Y115.467
G0 X201.038 Y158.017
G0 X201.638 Y158.017
G1 F900 X201.656 Y158.017 E70.38723
G1 X201.656 Y158.145 E70.39126
G1 X241.896 Y158.145 E71.72852
G1 X241.896 Y158.017 E71.73277
G1 X245.124 Y158.017 E71.84005
G1 X245.124 Y161.874 E71.96822
G1 X44.876 Y161.874 E78.62286
G1 X44.876 Y158.017 E78.75104
G1 X48.104 Y158.017 E78.85831
G1 X48.104 Y158.145 E78.86256
G1 X88.094 Y158.145 E80.19151
G1 X88.344 Y158.145 E80.19982
G1 X88.344 Y157.895 E80.20519
G1 X88.326 Y113.376 E81.68465
G1 X88.326 Y113.126 E81.69296
G1 X88.576 Y113.126 E81.69833
G1 X201.638 Y113.126 E85.45561
G1 X201.638 Y158.017 E86.94742
G0 F2625 X201.656 Y158.017
G0 X201.656 Y158.145
G0 X201.76 Y158.145
G0 X201.76 Y158.745
G0 X200.666 Y159.007
;TYPE:SKIN
G1 F900 X200.666 Y159.135 E86.95168
G1 X242.886 Y159.135 E88.35473
G1 X242.886 Y159.007 E88.35898
G1 X244.134 Y159.007 E88.40046
G1 X244.134 Y160.884 E88.46283
G1 X45.866 Y160.884 E95.05167
G1 X45.866 Y159.007 E95.11405
G1 X47.114 Y159.007 E95.15552
G1 X47.114 Y159.135 E95.15978
G1 X89.334 Y159.135 E96.56283
G1 X89.316 Y114.116 E98.0589
G1 X200.648 Y114.116 E101.75868
G1 X200.648 Y159.007 E103.2505
G1 X200.666 Y159.007 E103.2511
G0 F2625 X198.707 Y159.135
G1 F900 X198.707 Y115.005 E104.71763
G1 X156.487 Y115.005 E106.12068
G1 X156.487 Y159.135 E107.58721
G1 X198.707 Y159.135 E108.99026
G0 F2625 X155.239 Y159.135
G1 F900 X155.239 Y115.005 E110.45679
G1 X135.296 Y115.005 E111.11954
G1 X135.296 Y159.135 E112.58606
G1 X155.239 Y159.135 E113.24881
G0 F2625 X134.048 Y159.135
G1 F900 X134.048 Y115.005 E114.71534
G1 X91.828 Y115.005 E116.11839
G1 X91.828 Y159.135 E117.58492
G1 X134.048 Y159.135 E118.98797
G0 F2625 X135.758 Y147.054
G0 X154.777 Y146.835
G0 X156.949 Y115.467
G0 X200.422 Y114.862
G1 F900 X199.9 Y114.34 E119.01251
G0 F2625 X199.193 Y114.34
G1 F900 X200.422 Y115.569 E119.07026
G1 X200.51 Y115.657
G0 F2625 X200.422 Y116.276
G1 F900 X198.931 Y114.785 E119.14034
G1 X198.843 Y114.697
G0 F2625 X198.705 Y114.559
G1 F900 X197.998 Y114.559 E119.16097
G1 X197.291 Y114.559 E119.18159
G1 X196.584 Y114.559 E119.20222
G1 X195.876 Y114.559 E119.22288
G1 X195.169 Y114.559 E119.24351
G1 X194.462 Y114.559 E119.26414
G1 X193.755 Y114.559 E119.28477
G1 X193.048 Y114.559 E119.3054
G1 X192.341 Y114.559 E119.32602
G1 X191.634 Y114.559 E119.34665
G1 X190.927 Y114.559 E119.36728
G1 X190.22 Y114.559 E119.38791
G1 X189.513 Y114.559 E119.40854
G1 X188.805 Y114.559 E119.4292
G1 X188.098 Y114.559 E119.44982
G1 X187.391 Y114.559 E119.47045
G1 X186.684 Y114.559 E119.49108
G1 X185.977 Y114.559 E119.51171
G1 X185.27 Y114.559 E119.53234
G1 X184.563 Y114.559 E119.55297
G1 X183.856 Y114.559 E119.5736
G1 X183.149 Y114.559 E119.59423
G1 X182.441 Y114.559 E119.61488
G1 X181.734 Y114.559 E119.63551
G1 X181.027 Y114.559 E119.65614
G1 X180.32 Y114.559 E119.67677
G1 X179.613 Y114.559 E119.6974
G1 X178.906 Y114.559 E119.71803
G1 X178.199 Y114.559 E119.73865
G1 X177.492 Y114.559 E119.75928
G1 X176.785 Y114.559 E119.77991
G1 X176.077 Y114.559 E119.80057
G1 X175.37 Y114.559 E119.8212
G1 X174.663 Y114.559 E119.84183
G1 X173.956 Y114.559 E119.86246
G1 X173.249 Y114.559 E119.88308
G1 X172.542 Y114.559 E119.90371
G1 X171.835 Y114.559 E119.92434
G1 X171.128 Y114.559 E119.94497
G1 X170.421 Y114.559 E119.9656
G1 X169.714 Y114.559 E119.98623
G1 X169.006 Y114.559 E120.00689
G1 X168.299 Y114.559 E120.02751
G1 X167.592 Y114.559 E120.04814
G1 X166.885 Y114.559 E120.06877
G1 X166.178 Y114.559 E120.0894
G1 X165.471 Y114.559 E120.11003
G1 X164.764 Y114.559 E120.13066
G1 X164.057 Y114.559 E120.15129
G1 X163.35 Y114.559 E120.17191
G1 X162.642 Y114.559 E120.19257
G1 X161.935 Y114.559 E120.2132
G1 X161.228 Y114.559 E120.23383
G1 X160.521 Y114.559 E120.25446
G1 X159.814 Y114.559 E120.27509
G1 X159.107 Y114.559 E120.29572
G1 X158.4 Y114.559 E120.31634
G1 X157.693 Y114.559 E120.33697
G1 X156.986 Y114.559 E120.3576
