;FLAVOR:Marlin
;TIME:29887
;Filament used: 19.3614m
;Layer height: 0.2
;MINX:38.626
;MINY:114.376
;MINZ:0.2
;MAXX:261.374
;MAXY:185.624
;MAXZ:33
;Generated with Cura_SteamEngine 4.3.0
M140 S50
M105
M190 S50
M104 S200
M105
M109 S200
M82 ;absolute extrusion mode
M201 X500.00 Y500.00 Z100.00 E5000.00 ;Setup machine max acceleration
M203 X500.00 Y500.00 Z10.00 E50.00 ;Setup machine max feedrate
M204 P500.00 R1000.00 T500.00 ;Setup Print/Retract/Travel acceleration
M205 X8.00 Y8.00 Z0.40 E5.00 ;Setup Jerk
M220 S100 ;Reset Feedrate
M221 S100 ;Reset Flowrate

G28 ;Home

G92 E0 ;Reset Extruder
G1 Z2.0 F3000 ;Move Z Axis up
G1 X10.1 Y20 Z0.28 F5000.0 ;Move to start position
G1 X10.1 Y200.0 Z0.28 F1500.0 E15 ;Draw the first line
G1 X10.4 Y200.0 Z0.28 F5000.0 ;Move to side a little
G1 X10.4 Y20 Z0.28 F1500.0 E30 ;Draw the second line
G92 E0 ;Reset Extruder
G1 Z2.0 F3000 ;Move Z Axis up

G92 E0
G92 E0
G1 F2700 E-5
;LAYER_COUNT:165
;LAYER:0
M107
G0 F6000 X45.738 Y115.115 Z0.2
;TYPE:SKIRT
G1 F2700 E0
G1 F1200 X46.628 Y114.82 E0.03119
G1 X47.541 Y114.602 E0.06241
G1 X48.468 Y114.463 E0.09358
G1 X49.398 Y114.404 E0.12458
G1 X50.554 Y114.379 E0.16303
G1 X50.792 Y114.376 E0.17095
G1 X249.667 Y114.376 E6.78556
G1 X249.825 Y114.377 E6.79082
G1 X250.523 Y114.387 E6.81403
G1 X251.459 Y114.441 E6.84522
G1 X252.387 Y114.573 E6.87639
G1 X253.301 Y114.785 E6.9076
G1 X254.193 Y115.074 E6.93879
G1 X255.058 Y115.437 E6.96999
G1 X255.888 Y115.873 E7.00117
G1 X256.679 Y116.378 E7.03238
G1 X257.423 Y116.949 E7.06358
G1 X258.116 Y117.581 E7.09477
G1 X258.753 Y118.269 E7.12596
G1 X259.328 Y119.01 E7.15715
G1 X259.839 Y119.796 E7.18833
G1 X260.281 Y120.624 E7.21955
G1 X260.65 Y121.486 E7.25074
G1 X260.945 Y122.376 E7.28192
G1 X261.163 Y123.288 E7.31311
G1 X261.303 Y124.216 E7.34432
G1 X261.361 Y125.077 E7.37303
G1 X261.37 Y125.397 E7.38367
G1 X261.374 Y125.706 E7.39395
G1 X261.374 Y128.983 E7.50295
G1 X261.373 Y129.134 E7.50797
G1 X261.363 Y129.861 E7.53215
G1 X261.31 Y130.798 E7.56337
G1 X261.178 Y131.726 E7.59454
G1 X260.967 Y132.64 E7.62574
G1 X260.678 Y133.532 E7.65693
G1 X260.315 Y134.397 E7.68813
G1 X259.88 Y135.228 E7.71932
G1 X259.375 Y136.018 E7.75051
G1 X258.805 Y136.763 E7.78171
G1 X258.174 Y137.457 E7.81291
G1 X257.485 Y138.094 E7.84412
G1 X256.745 Y138.67 E7.87531
G1 X255.623 Y139.372 E7.91933
G1 X253.393 Y140.586 E8.00377
G1 X251.203 Y141.852 E8.08791
G1 X249.08 Y143.164 E8.17092
G1 X246.966 Y144.551 E8.25501
G1 X244.897 Y145.996 E8.33895
G1 X242.857 Y147.507 E8.42338
G1 X240.921 Y149.029 E8.50529
G1 X238.962 Y150.659 E8.59005
G1 X237.079 Y152.321 E8.67359
G1 X235.234 Y154.042 E8.75751
G1 X233.463 Y155.79 E8.84027
G1 X231.707 Y157.625 E8.92474
G1 X230.005 Y159.508 E9.00916
G1 X228.387 Y161.403 E9.09204
G1 X226.803 Y163.368 E9.17599
G1 X225.279 Y165.372 E9.25973
G1 X223.823 Y167.403 E9.34284
G1 X222.406 Y169.503 E9.4271
G1 X221.042 Y171.651 E9.51173
G1 X219.779 Y173.771 E9.59381
G1 X218.535 Y176.005 E9.67885
G1 X217.379 Y178.222 E9.76201
G1 X217.346 Y178.289 E9.7645
G1 X217.272 Y178.438 E9.77003
G1 X216.702 Y179.568 E9.81213
G1 X216.245 Y180.387 E9.84332
G1 X215.719 Y181.163 E9.8745
G1 X215.129 Y181.892 E9.90569
G1 X214.479 Y182.568 E9.93688
G1 X213.774 Y183.187 E9.96809
G1 X213.018 Y183.743 E9.9993
G1 X212.218 Y184.232 E10.03049
G1 X211.38 Y184.652 E10.06166
G1 X210.508 Y184.999 E10.09288
G1 X209.61 Y185.27 E10.12408
G1 X208.693 Y185.464 E10.15525
G1 X207.762 Y185.579 E10.18645
G1 X207.221 Y185.609 E10.20447
G1 X206.898 Y185.619 E10.21522
G1 X206.558 Y185.624 E10.22653
G1 X93.795 Y185.624 E13.97704
G1 X93.637 Y185.623 E13.9823
G1 X92.939 Y185.613 E14.00552
G1 X92.003 Y185.559 E14.0367
G1 X91.075 Y185.427 E14.06788
G1 X90.161 Y185.215 E14.09908
G1 X89.269 Y184.926 E14.13027
G1 X88.404 Y184.563 E14.16147
G1 X87.574 Y184.127 E14.19265
G1 X86.783 Y183.622 E14.22387
G1 X86.039 Y183.051 E14.25506
G1 X85.346 Y182.419 E14.28625
G1 X84.709 Y181.731 E14.31744
G1 X84.134 Y180.99 E14.34863
G1 X83.623 Y180.204 E14.37982
G1 X83.277 Y179.57 E14.40384
G1 X81.997 Y177.034 E14.49832
G1 X80.803 Y174.827 E14.58178
G1 X79.521 Y172.608 E14.66702
G1 X78.221 Y170.5 E14.74939
G1 X76.838 Y168.392 E14.83324
G1 X75.38 Y166.302 E14.918
G1 X73.911 Y164.318 E15.00011
G1 X72.341 Y162.317 E15.0847
G1 X70.735 Y160.387 E15.16821
G1 X69.058 Y158.482 E15.25263
G1 X67.348 Y156.649 E15.336
G1 X65.595 Y154.872 E15.41902
G1 X63.759 Y153.112 E15.50362
G1 X61.884 Y151.415 E15.58773
G1 X60.008 Y149.812 E15.6698
G1 X58.023 Y148.209 E15.75466
G1 X56.019 Y146.685 E15.8384
G1 X53.981 Y145.222 E15.92184
G1 X51.911 Y143.823 E16.00494
G1 X49.773 Y142.466 E16.08916
G1 X47.594 Y141.167 E16.17354
G1 X45.313 Y139.894 E16.26042
G1 X44.414 Y139.409 E16.29439
G1 X43.609 Y138.929 E16.32557
G1 X42.847 Y138.382 E16.35676
G1 X42.134 Y137.772 E16.38797
G1 X41.476 Y137.104 E16.41916
G1 X40.877 Y136.382 E16.45036
G1 X40.342 Y135.611 E16.48157
G1 X39.875 Y134.798 E16.51276
G1 X39.478 Y133.948 E16.54396
G1 X39.156 Y133.068 E16.57513
G1 X38.909 Y132.163 E16.60633
G1 X38.741 Y131.24 E16.63753
G1 X38.641 Y130.045 E16.67742
G1 X38.632 Y129.734 E16.68777
G1 X38.627 Y129.419 E16.69824
G1 X38.626 Y126.091 E16.80893
G1 X38.627 Y125.928 E16.81436
G1 X38.637 Y125.241 E16.83721
G1 X38.691 Y124.305 E16.86839
G1 X38.824 Y123.376 E16.8996
G1 X39.036 Y122.463 E16.93078
G1 X39.325 Y121.57 E16.962
G1 X39.688 Y120.706 E16.99317
G1 X40.124 Y119.876 E17.02435
G1 X40.63 Y119.085 E17.05558
G1 X41.2 Y118.341 E17.08675
G1 X41.832 Y117.648 E17.11795
G1 X42.521 Y117.012 E17.14914
G1 X43.262 Y116.436 E17.18035
G1 X44.049 Y115.926 E17.21154
G1 X44.876 Y115.484 E17.24273
G1 X45.738 Y115.115 E17.27392
G0 F6000 X46.102 Y115.407
G1 F1200 X46.982 Y115.139 E17.30451
G1 X47.883 Y114.947 E17.33515
G1 X48.797 Y114.834 E17.36579
G1 X49.407 Y114.803 E17.3861
G1 X50.563 Y114.778 E17.42456
G1 X50.792 Y114.776 E17.43218
G1 X249.667 Y114.776 E24.04678
G1 X249.819 Y114.777 E24.05184
G1 X250.517 Y114.787 E24.07506
G1 X251.436 Y114.84 E24.10568
G1 X252.347 Y114.973 E24.1363
G1 X253.243 Y115.184 E24.16691
G1 X254.117 Y115.472 E24.19752
G1 X254.964 Y115.835 E24.22817
G1 X255.775 Y116.27 E24.25878
G1 X256.545 Y116.774 E24.28939
G1 X257.269 Y117.343 E24.32001
G1 X257.941 Y117.973 E24.35065
G1 X258.556 Y118.658 E24.38127
G1 X259.109 Y119.394 E24.41189
G1 X259.596 Y120.175 E24.4425
G1 X260.013 Y120.996 E24.47313
G1 X260.358 Y121.85 E24.50376
G1 X260.627 Y122.73 E24.53437
G1 X260.819 Y123.631 E24.56501
G1 X260.932 Y124.544 E24.59561
G1 X260.961 Y125.088 E24.61373
G1 X260.97 Y125.408 E24.62437
G1 X260.974 Y125.706 E24.63429
G1 X260.974 Y128.983 E24.74328
G1 X260.973 Y129.129 E24.74814
G1 X260.963 Y129.856 E24.77232
G1 X260.91 Y130.775 E24.80293
G1 X260.778 Y131.686 E24.83355
G1 X260.567 Y132.582 E24.86417
G1 X260.28 Y133.457 E24.8948
G1 X259.917 Y134.303 E24.92541
G1 X259.483 Y135.115 E24.95604
G1 X258.979 Y135.886 E24.98667
G1 X258.411 Y136.61 E25.01728
G1 X257.782 Y137.282 E25.04789
G1 X257.097 Y137.897 E25.07851
G1 X256.361 Y138.45 E25.10913
G1 X255.431 Y139.02 E25.14541
G1 X253.224 Y140.221 E25.22898
G1 X251.014 Y141.5 E25.31391
G1 X248.847 Y142.838 E25.39861
G1 X246.748 Y144.216 E25.48213
G1 X244.676 Y145.662 E25.56617
G1 X242.617 Y147.187 E25.65139
G1 X240.642 Y148.74 E25.73495
G1 X238.708 Y150.35 E25.81865
G1 X236.805 Y152.029 E25.90306
G1 X234.963 Y153.747 E25.98683
G1 X233.176 Y155.512 E26.07037
G1 X231.404 Y157.363 E26.1556
G1 X229.736 Y159.208 E26.23832
G1 X228.074 Y161.155 E26.32347
G1 X226.476 Y163.136 E26.40812
G1 X224.964 Y165.125 E26.49122
G1 X223.482 Y167.192 E26.57581
G1 X222.069 Y169.286 E26.65983
G1 X220.72 Y171.412 E26.74358
G1 X219.414 Y173.604 E26.82844
G1 X218.204 Y175.776 E26.91114
G1 X217.008 Y178.069 E26.99715
G1 X216.986 Y178.114 E26.99882
G1 X216.915 Y178.258 E27.00416
G1 X216.345 Y179.388 E27.04625
G1 X215.895 Y180.191 E27.07687
G1 X215.377 Y180.952 E27.10749
G1 X214.795 Y181.666 E27.13813
G1 X214.153 Y182.326 E27.16875
G1 X213.457 Y182.928 E27.19936
G1 X212.711 Y183.467 E27.22997
G1 X211.92 Y183.939 E27.2606
G1 X211.092 Y184.342 E27.29123
G1 X210.232 Y184.67 E27.32185
G1 X209.347 Y184.923 E27.35246
G1 X208.443 Y185.098 E27.38309
G1 X207.209 Y185.209 E27.42429
G1 X206.886 Y185.219 E27.43504
G1 X206.558 Y185.224 E27.44595
G1 X93.795 Y185.224 E31.19647
G1 X93.643 Y185.223 E31.20152
G1 X92.945 Y185.213 E31.22474
G1 X92.026 Y185.16 E31.25536
G1 X91.115 Y185.027 E31.28598
G1 X90.219 Y184.816 E31.31659
G1 X89.345 Y184.528 E31.3472
G1 X88.498 Y184.165 E31.37785
G1 X87.687 Y183.73 E31.40846
G1 X86.917 Y183.226 E31.43907
G1 X86.193 Y182.657 E31.46969
G1 X85.521 Y182.027 E31.50033
G1 X84.906 Y181.342 E31.53095
G1 X84.353 Y180.606 E31.56157
G1 X83.866 Y179.825 E31.59218
G1 X83.634 Y179.39 E31.60858
G1 X82.348 Y176.842 E31.70351
G1 X81.144 Y174.616 E31.78768
G1 X79.88 Y172.43 E31.87167
G1 X78.547 Y170.267 E31.95617
G1 X77.174 Y168.174 E32.03943
G1 X75.713 Y166.081 E32.12432
G1 X74.215 Y164.056 E32.2081
G1 X72.648 Y162.059 E32.29253
G1 X71.045 Y160.132 E32.3759
G1 X69.35 Y158.209 E32.46116
G1 X67.643 Y156.378 E32.54442
G1 X65.874 Y154.585 E32.62819
G1 X64.04 Y152.828 E32.71267
G1 X62.164 Y151.129 E32.79685
G1 X60.256 Y149.498 E32.88033
G1 X58.271 Y147.896 E32.96517
G1 X56.249 Y146.357 E33.04969
G1 X54.216 Y144.898 E33.13292
G1 X52.103 Y143.47 E33.21774
G1 X49.987 Y142.127 E33.3011
G1 X47.788 Y140.816 E33.38625
G1 X45.557 Y139.571 E33.47122
G1 X44.604 Y139.057 E33.50724
G1 X43.814 Y138.585 E33.53785
G1 X43.067 Y138.046 E33.56848
G1 X42.37 Y137.445 E33.59909
G1 X41.728 Y136.785 E33.62972
G1 X41.145 Y136.072 E33.66035
G1 X40.626 Y135.312 E33.69096
G1 X40.176 Y134.509 E33.72158
G1 X39.797 Y133.67 E33.7522
G1 X39.492 Y132.801 E33.78283
G1 X39.263 Y131.909 E33.81346
G1 X39.113 Y131.001 E33.84407
G1 X39.04 Y130.034 E33.87632
G1 X39.031 Y129.723 E33.88667
G1 X39.027 Y129.419 E33.89678
G1 X39.026 Y126.091 E34.00747
G1 X39.027 Y125.934 E34.01269
G1 X39.037 Y125.247 E34.03555
G1 X39.09 Y124.328 E34.06616
G1 X39.223 Y123.417 E34.09678
G1 X39.435 Y122.521 E34.12741
G1 X39.723 Y121.646 E34.15805
G1 X40.086 Y120.8 E34.18867
G1 X40.522 Y119.989 E34.21929
G1 X41.026 Y119.219 E34.2499
G1 X41.595 Y118.495 E34.28053
G1 X42.224 Y117.823 E34.31114
G1 X42.91 Y117.208 E34.34178
G1 X43.646 Y116.656 E34.37238
G1 X44.427 Y116.169 E34.403
G1 X45.248 Y115.752 E34.43362
G1 X46.102 Y115.407 E34.46426
G0 F6000 X45.618 Y116.026
G1 F1200 X46.463 Y115.707 E34.4943
G1 X47.333 Y115.464 E34.52434
G1 X48.221 Y115.3 E34.55438
G1 X49.415 Y115.203 E34.59422
G1 X50.571 Y115.178 E34.63268
G1 X50.792 Y115.176 E34.64003
G1 X249.667 Y115.176 E41.25464
G1 X249.813 Y115.177 E41.25949
G1 X250.511 Y115.187 E41.28271
G1 X251.413 Y115.24 E41.31276
G1 X252.306 Y115.372 E41.34279
G1 X253.184 Y115.583 E41.37282
G1 X254.04 Y115.871 E41.40286
G1 X254.867 Y116.233 E41.43289
G1 X255.659 Y116.668 E41.46294
G1 X256.41 Y117.17 E41.49298
G1 X257.113 Y117.737 E41.52302
G1 X257.763 Y118.364 E41.55306
G1 X258.355 Y119.046 E41.5831
G1 X258.885 Y119.777 E41.61313
G1 X259.347 Y120.553 E41.64317
G1 X259.74 Y121.366 E41.6732
G1 X260.058 Y122.211 E41.70323
G1 X260.301 Y123.081 E41.73327
G1 X260.466 Y123.969 E41.76332
G1 X260.561 Y125.099 E41.80103
G1 X260.57 Y125.419 E41.81168
G1 X260.574 Y125.706 E41.82123
G1 X260.574 Y128.983 E41.93022
G1 X260.573 Y129.123 E41.93488
G1 X260.563 Y129.85 E41.95906
G1 X260.511 Y130.752 E41.98911
G1 X260.379 Y131.645 E42.01913
G1 X260.168 Y132.524 E42.0492
G1 X259.881 Y133.38 E42.07923
G1 X259.519 Y134.207 E42.10925
G1 X259.085 Y134.999 E42.13929
G1 X258.583 Y135.75 E42.16934
G1 X258.017 Y136.453 E42.19935
G1 X257.39 Y137.104 E42.22942
G1 X256.709 Y137.696 E42.25943
G1 X255.978 Y138.226 E42.28946
G1 X255.24 Y138.669 E42.31809
G1 X252.998 Y139.889 E42.40298
G1 X250.809 Y141.155 E42.48709
G1 X248.648 Y142.49 E42.57157
G1 X246.521 Y143.886 E42.65619
G1 X244.414 Y145.357 E42.74166
G1 X242.394 Y146.853 E42.82527
G1 X240.406 Y148.416 E42.90938
G1 X238.433 Y150.059 E42.99477
G1 X236.568 Y151.703 E43.07746
G1 X234.675 Y153.47 E43.16359
G1 X232.889 Y155.234 E43.24708
G1 X231.101 Y157.101 E43.33306
G1 X229.436 Y158.944 E43.41567
G1 X227.742 Y160.928 E43.50244
G1 X226.174 Y162.871 E43.58548
G1 X224.653 Y164.873 E43.66911
G1 X223.158 Y166.958 E43.75444
G1 X221.727 Y169.078 E43.83951
G1 X220.381 Y171.199 E43.92306
G1 X219.07 Y173.399 E44.00824
G1 X217.843 Y175.603 E44.09214
G1 X216.651 Y177.888 E44.17786
G1 X216.626 Y177.939 E44.17975
G1 X216.558 Y178.078 E44.1849
G1 X215.988 Y179.208 E44.22699
G1 X215.546 Y179.995 E44.25701
G1 X215.036 Y180.741 E44.28707
G1 X214.462 Y181.438 E44.3171
G1 X213.829 Y182.082 E44.34713
G1 X213.141 Y182.667 E44.37717
G1 X212.404 Y183.189 E44.40721
G1 X211.624 Y183.644 E44.43724
G1 X210.807 Y184.028 E44.46727
G1 X209.959 Y184.339 E44.49731
G1 X209.086 Y184.573 E44.52737
G1 X208.197 Y184.729 E44.55739
G1 X207.197 Y184.809 E44.59076
G1 X206.874 Y184.819 E44.60151
G1 X206.558 Y184.824 E44.61202
G1 X93.795 Y184.824 E48.36253
G1 X93.649 Y184.823 E48.36739
G1 X92.951 Y184.813 E48.3906
G1 X92.049 Y184.76 E48.42066
G1 X91.156 Y184.628 E48.45068
G1 X90.278 Y184.417 E48.48071
G1 X89.422 Y184.129 E48.51075
G1 X88.595 Y183.767 E48.54078
G1 X87.803 Y183.332 E48.57083
G1 X87.052 Y182.83 E48.60088
G1 X86.349 Y182.263 E48.63092
G1 X85.699 Y181.636 E48.66096
G1 X85.107 Y180.954 E48.69099
G1 X84.577 Y180.223 E48.72102
G1 X83.991 Y179.209 E48.75998
G1 X82.7 Y176.65 E48.85531
G1 X81.499 Y174.431 E48.93923
G1 X80.218 Y172.214 E49.02439
G1 X78.905 Y170.085 E49.10758
G1 X77.492 Y167.931 E49.19327
G1 X76.031 Y165.837 E49.27819
G1 X74.536 Y163.817 E49.36177
G1 X72.972 Y161.823 E49.44606
G1 X71.334 Y159.855 E49.53122
G1 X69.66 Y157.955 E49.61545
G1 X67.921 Y156.09 E49.70026
G1 X66.153 Y154.298 E49.78399
G1 X64.32 Y152.541 E49.86844
G1 X62.428 Y150.829 E49.9533
G1 X60.483 Y149.166 E50.03841
G1 X58.52 Y147.581 E50.12233
G1 X56.519 Y146.059 E50.20595
G1 X54.427 Y144.558 E50.29159
G1 X52.336 Y143.144 E50.37554
G1 X50.184 Y141.779 E50.4603
G1 X48.008 Y140.481 E50.54457
G1 X45.671 Y139.177 E50.63358
G1 X44.794 Y138.704 E50.66673
G1 X44.019 Y138.241 E50.69675
G1 X43.288 Y137.711 E50.72678
G1 X42.607 Y137.118 E50.75682
G1 X41.98 Y136.467 E50.78688
G1 X41.414 Y135.764 E50.8169
G1 X40.912 Y135.013 E50.84694
G1 X40.479 Y134.22 E50.87699
G1 X40.117 Y133.393 E50.90702
G1 X39.831 Y132.536 E50.93707
G1 X39.62 Y131.658 E50.9671
G1 X39.489 Y130.765 E50.99712
G1 X39.44 Y130.022 E51.02189
G1 X39.431 Y129.711 E51.03224
G1 X39.427 Y129.419 E51.04195
G1 X39.426 Y126.091 E51.15264
G1 X39.427 Y125.94 E51.15766
G1 X39.437 Y125.253 E51.18051
G1 X39.49 Y124.351 E51.21056
G1 X39.623 Y123.458 E51.24059
G1 X39.834 Y122.58 E51.27063
G1 X40.122 Y121.724 E51.30067
G1 X40.485 Y120.897 E51.33071
G1 X40.919 Y120.105 E51.36074
G1 X41.421 Y119.354 E51.39079
G1 X41.989 Y118.651 E51.42085
G1 X42.615 Y118.002 E51.45084
G1 X43.298 Y117.41 E51.4809
G1 X44.029 Y116.88 E51.51093
G1 X44.805 Y116.418 E51.54097
G1 X45.618 Y116.026 E51.57099
G1 F2700 E46.57099
;MESH:stereo_camera_mount__R2.STL
G0 F6000 X48.973 Y130.386
G0 X92.441 Y130.258
G0 X92.505 Y137.644
G0 X98.656 Y140.48
G0 X98.721 Y130.258
G0 X137.155 Y130.258
G0 X137.219 Y158.26
G0 X143.03 Y160.939
G0 X158.346 Y160.985
G0 X158.409 Y168.03
G0 X163.314 Y170.292
G0 X163.392 Y170.328
G0 X161.557 Y170.328
G0 X161.727 Y172.255
;TYPE:WALL-INNER
G1 F2700 E51.57099
G1 F1200 X203.467 Y172.255 E52.95927
G1 X203.467 Y128.605 E54.41107
G1 X161.727 Y128.605 E55.79935
G1 X161.727 Y172.255 E57.25116
G0 F6000 X162.127 Y171.855
G1 F1200 X203.067 Y171.855 E58.61283
G1 X203.067 Y129.005 E60.03802
G1 X162.127 Y129.005 E61.39969
